packages/icons/brands/Medium.svg

<svg width="24" height="24" viewBox="0 0 24 24" xmlns="http://www.w3.org/2000/svg">
<g>
        <g clip-path="url(#clip0_4039_39674)">
            <path
                d="M2 0H22C23.3333 0 24 0.666667 24 2V22C24 23.3333 23.3333 24 22 24H2C0.666667 24 0 23.3333 0 22V2C0 0.666667 0.666667 0 2 0V0Z"
                fill="#12100E"
            />
            <path
                d="M5.897 7.652C5.90709 7.55336 5.89419 7.45372 5.85932 7.3609C5.82444 7.26808 5.76854 7.1846 5.696 7.117L4.202 5.275V5H8.84L12.426 13.048L15.578 5H20V5.275L18.723 6.53C18.6688 6.5728 18.6271 6.6293 18.6021 6.69366C18.5772 6.75801 18.5699 6.82787 18.581 6.896V16.106C18.558 16.246 18.613 16.386 18.723 16.472L19.97 17.726V18H13.696V17.725L14.988 16.441C15.115 16.311 15.115 16.273 15.115 16.074V8.63L11.522 17.97H11.036L6.853 8.63V14.89C6.83572 15.0194 6.84759 15.151 6.88773 15.2753C6.92787 15.3995 6.99527 15.5132 7.085 15.608L8.765 17.694V17.969H4V17.694L5.68 15.608C5.86 15.418 5.94 15.151 5.897 14.889V7.652Z"
                fill="white"
            />
        </g>
        <defs>
            <clipPath id="clip0_4039_39674">
                <rect width="24" height="24" fill="white" />
            </clipPath>
        </defs>
    </g>
</svg>

<svg xmlns="http://www.w3.org/2000/svg" viewBox="0 0 24 24">
    <g clip-path="url(#Medium_svg__a)">
        <path fill="#12100E" d="M2 0h20c1.333 0 2 .667 2 2v20c0 1.333-.667 2-2 2H2c-1.333 0-2-.667-2-2V2C0 .667.667 0 2 0Z"/>
        <path fill="#fff" d="M5.897 7.652a.642.642 0 0 0-.201-.535L4.202 5.275V5H8.84l3.586 8.048L15.578 5H20v.275L18.723 6.53a.387.387 0 0 0-.142.366v9.21c-.023.14.032.28.142.366l1.247 1.254V18h-6.274v-.275l1.292-1.284c.127-.13.127-.168.127-.367V8.63l-3.593 9.34h-.486L6.853 8.63v6.26a.876.876 0 0 0 .232.718l1.68 2.086v.275H4v-.275l1.68-2.086c.18-.19.26-.457.217-.719V7.652Z"/>
    </g>
    <defs>
        <clipPath id="Medium_svg__a">
            <path fill="#fff" d="M0 0h24v24H0z"/>
        </clipPath>
    </defs>
</svg>
